.local/share/icons/Gruvbox-Plus-Dark/mimetypes/scalable/application-x-blender.svg

<svg width="256" height="256" viewBox="0 0 256 256" fill="none" xmlns="http://www.w3.org/2000/svg">
<g opacity="0.4" filter="url(#filter0_f)">
<path d="M55.0839 15.5636H155.608L216.009 75.7129L216.011 224.609C216.011 233.52 208.749 240.737 199.838 240.737H55.0838C46.1734 240.737 39 233.564 39 224.654V31.6474C39 22.737 46.1734 15.5636 55.0838 15.5636H55.0839Z" fill="#282828"/>
</g>
<path d="M55.0839 15H155.608L216.009 75.1493L216.011 224.045C216.011 232.956 208.749 240.174 199.838 240.174H55.0838C46.1734 240.174 39 233 39 224.09V31.0838C39 22.1734 46.1734 15 55.0838 15H55.0839Z" fill="#ebdbb2"/>
<path fill-rule="evenodd" clip-rule="evenodd" d="M155.609 22.9787H55.0839C50.58 22.9787 46.9787 26.5799 46.9787 31.0838V224.09C46.9787 228.594 50.5799 232.195 55.0838 232.195H199.838C204.371 232.195 208.032 228.521 208.032 224.046V75.1493L155.609 22.9787ZM155.608 15H55.0839C46.1735 15 39 22.1734 39 31.0838V224.09C39 233 46.1734 240.174 55.0838 240.174H199.838C208.749 240.174 216.011 232.956 216.011 224.045L216.009 75.1493L155.608 15Z" fill="url(#paint0_linear)"/>
<path d="M130.3 133.327C130.501 129.727 132.267 126.553 134.926 124.304C137.538 122.094 141.049 120.744 144.883 120.744C148.713 120.744 152.225 122.094 154.835 124.304C157.495 126.554 159.258 129.727 159.462 133.324C159.664 137.027 158.178 140.464 155.566 143.012C152.905 145.605 149.122 147.233 144.883 147.233C140.643 147.233 136.853 145.605 134.191 143.012C131.581 140.463 130.097 137.027 130.299 133.327H130.3Z" fill="url(#paint1_linear)"/>
<path d="M107.078 140.606C107.103 142.018 107.553 144.755 108.227 146.894C109.644 151.422 112.048 155.611 115.395 159.304C118.828 163.097 123.055 166.147 127.937 168.309C133.067 170.584 138.627 171.74 144.403 171.731C150.171 171.723 155.73 170.541 160.862 168.252C165.744 166.069 169.967 163.006 173.396 159.21C176.737 155.504 179.14 151.308 180.559 146.78C181.268 144.524 181.72 142.195 181.906 139.838C182.085 137.543 182.008 135.246 181.683 132.948C181.046 128.47 179.498 124.271 177.115 120.442C174.932 116.924 172.12 113.842 168.777 111.249L168.787 111.245L135.047 85.3389C135.017 85.3159 134.993 85.2909 134.961 85.2719C132.745 83.5709 129.023 83.5779 126.591 85.2819C124.127 87.0019 123.847 89.8489 126.036 91.6479L126.028 91.6549L140.098 103.098L97.2079 103.146H97.1519C93.6069 103.148 90.1989 105.474 89.5259 108.415C88.8309 111.409 91.2389 113.893 94.9249 113.905L94.9209 113.918L116.658 113.876L77.8659 143.652C77.8189 143.69 77.7639 143.726 77.7179 143.764C74.0579 146.564 72.8779 151.226 75.1819 154.173C77.5199 157.173 82.4949 157.179 86.1919 154.19L107.364 136.865C107.364 136.865 107.054 139.202 107.078 140.606V140.606ZM161.483 148.441C157.119 152.885 151.013 155.405 144.403 155.419C137.786 155.43 131.68 152.931 127.316 148.494C125.185 146.332 123.619 143.846 122.653 141.194C121.704 138.587 121.339 135.803 121.583 133.04C121.815 130.344 122.612 127.727 123.922 125.36C125.194 123.048 126.945 120.957 129.111 119.189C133.349 115.733 138.748 113.865 144.396 113.857C150.048 113.847 155.442 115.703 159.685 119.145C161.845 120.905 163.597 122.987 164.87 125.298C166.183 127.663 166.982 130.278 167.217 132.973C167.456 135.736 167.089 138.517 166.142 141.124C165.175 143.782 163.614 146.267 161.482 148.441H161.483Z" fill="url(#paint2_linear)"/>
<path opacity="0.25" d="M155.608 17V61.2306C155.608 70.141 162.867 77.1605 171.777 77.1605L216.009 77.1493V75.1493L155.608 17Z" fill="#282828"/>
<path d="M155.608 15V59.2306C155.608 68.141 162.867 75.1605 171.777 75.1605L216.009 75.1493L155.608 15Z" fill="url(#paint3_linear)"/>
<defs>
<filter id="filter0_f" x="23.8778" y="0.441412" width="207.255" height="255.418" filterUnits="userSpaceOnUse" color-interpolation-filters="sRGB">
<feFlood flood-opacity="0" result="BackgroundImageFix"/>
<feBlend mode="normal" in="SourceGraphic" in2="BackgroundImageFix" result="shape"/>
<feGaussianBlur stdDeviation="7.5611" result="effect1_foregroundBlur"/>
</filter>
<linearGradient id="paint0_linear" x1="39" y1="15" x2="39" y2="240.174" gradientUnits="userSpaceOnUse">
<stop offset="1e-07" stop-color="#fe8019"/>
<stop offset="1" stop-color="#d65d0e"/>
</linearGradient>
<linearGradient id="paint1_linear" x1="135.747" y1="120.866" x2="135.817" y2="147.199" gradientUnits="userSpaceOnUse">
<stop stop-color="#83a598"/>
<stop offset="1" stop-color="#458588"/>
</linearGradient>
<linearGradient id="paint2_linear" x1="74" y1="84" x2="74" y2="171.731" gradientUnits="userSpaceOnUse">
<stop offset="1e-07" stop-color="#fabd2f"/>
<stop offset="0.5" stop-color="#fe8019"/>
<stop offset="1" stop-color="#d65d0e"/>
</linearGradient>
<linearGradient id="paint3_linear" x1="186" y1="28" x2="137" y2="117" gradientUnits="userSpaceOnUse">
<stop offset="1e-07" stop-color="#fe8019"/>
<stop offset="1" stop-color="#d65d0e"/>
</linearGradient>
</defs>
</svg>

<svg width="256" height="256" fill="none" version="1.1" viewBox="0 0 256 256" xmlns="http://www.w3.org/2000/svg">
  <path d="m55.08 15h100.5l60.4 60.15 2e-3 148.9c0 8.911-7.262 16.13-16.17 16.13h-144.8c-8.91 0-16.08-7.174-16.08-16.08v-193c0-8.91 7.173-16.08 16.08-16.08h1e-4z" fill="#ebdbb2"/>
  <path d="m155.6 22.98h-100.5c-4.504 0-8.105 3.601-8.105 8.105v193c0 4.504 3.601 8.105 8.105 8.105h144.8c4.533 0 8.194-3.674 8.194-8.149v-148.9l-52.42-52.17zm-1e-3 -7.979h-100.5c-8.91 0-16.08 7.173-16.08 16.08v193c0 8.91 7.173 16.08 16.08 16.08h144.8c8.911 0 16.17-7.218 16.17-16.13l-2e-3 -148.9-60.4-60.15z" clip-rule="evenodd" fill="url(#paint0_linear)" fill-rule="evenodd"/>
  <path d="m130.3 133.3c0.201-3.6 1.967-6.774 4.626-9.023 2.612-2.21 6.123-3.56 9.957-3.56 3.83 0 7.342 1.35 9.952 3.56 2.66 2.25 4.423 5.423 4.627 9.02 0.202 3.703-1.284 7.14-3.896 9.688-2.661 2.593-6.444 4.221-10.68 4.221-4.24 0-8.03-1.628-10.69-4.221-2.61-2.549-4.094-5.985-3.892-9.685h1e-3z" fill="url(#paint1_linear)"/>
  <path d="m107.1 140.6c0.025 1.412 0.475 4.149 1.149 6.288 1.417 4.528 3.821 8.717 7.168 12.41 3.433 3.793 7.66 6.843 12.54 9.005 5.13 2.275 10.69 3.431 16.47 3.422 5.768-8e-3 11.33-1.19 16.46-3.479 4.882-2.183 9.105-5.246 12.53-9.042 3.341-3.706 5.744-7.902 7.163-12.43 0.709-2.256 1.161-4.585 1.347-6.942 0.179-2.295 0.102-4.592-0.223-6.89-0.637-4.478-2.185-8.677-4.568-12.51-2.183-3.518-4.995-6.6-8.338-9.193l0.01-4e-3 -33.74-25.91c-0.03-0.023-0.054-0.048-0.086-0.067-2.216-1.701-5.938-1.694-8.37 0.01-2.464 1.72-2.744 4.567-0.555 6.366l-8e-3 7e-3 14.07 11.44-42.89 0.048h-0.056c-3.545 2e-3 -6.953 2.328-7.626 5.269-0.695 2.994 1.713 5.478 5.399 5.49l-4e-3 0.013 21.74-0.042-38.79 29.78c-0.047 0.038-0.102 0.074-0.148 0.112-3.66 2.8-4.84 7.462-2.536 10.41 2.338 3 7.313 3.006 11.01 0.017l21.17-17.32s-0.31 2.337-0.286 3.741zm54.4 7.835c-4.364 4.444-10.47 6.964-17.08 6.978-6.617 0.011-12.72-2.488-17.09-6.925-2.131-2.162-3.697-4.648-4.663-7.3-0.949-2.607-1.314-5.391-1.07-8.154 0.232-2.696 1.029-5.313 2.339-7.68 1.272-2.312 3.023-4.403 5.189-6.171 4.238-3.456 9.637-5.324 15.28-5.332 5.652-0.01 11.05 1.846 15.29 5.288 2.16 1.76 3.912 3.842 5.185 6.153 1.313 2.365 2.112 4.98 2.347 7.675 0.239 2.763-0.128 5.544-1.075 8.151-0.967 2.658-2.528 5.143-4.66 7.317h1e-3z" fill="url(#paint2_linear)"/>
  <path d="m155.6 17v44.23c0 8.91 7.259 15.93 16.17 15.93l44.23-0.0112v-2l-60.4-58.15z" fill="#282828" opacity=".25"/>
  <path d="m155.6 15v44.23c0 8.91 7.259 15.93 16.17 15.93l44.23-0.0112-60.4-60.15z" fill="url(#paint3_linear)"/>
  <defs>
    <linearGradient id="paint0_linear" x1="39" x2="39" y1="15" y2="240.2" gradientUnits="userSpaceOnUse">
      <stop stop-color="#fe8019" offset="1e-7"/>
      <stop stop-color="#d65d0e" offset="1"/>
    </linearGradient>
    <linearGradient id="paint1_linear" x1="135.7" x2="135.8" y1="120.9" y2="147.2" gradientUnits="userSpaceOnUse">
      <stop stop-color="#83a598" offset="0"/>
      <stop stop-color="#458588" offset="1"/>
    </linearGradient>
    <linearGradient id="paint2_linear" x1="74" x2="74" y1="84" y2="171.7" gradientUnits="userSpaceOnUse">
      <stop stop-color="#fabd2f" offset="1e-7"/>
      <stop stop-color="#fe8019" offset=".5"/>
      <stop stop-color="#d65d0e" offset="1"/>
    </linearGradient>
    <linearGradient id="paint3_linear" x1="186" x2="137" y1="28" y2="117" gradientUnits="userSpaceOnUse">
      <stop stop-color="#fe8019" offset="1e-7"/>
      <stop stop-color="#d65d0e" offset="1"/>
    </linearGradient>
  </defs>
</svg>
